images/16758099.svg

<?xml version="1.0" encoding="UTF-8"?>
<svg xmlns="http://www.w3.org/2000/svg" xmlns:xlink="http://www.w3.org/1999/xlink" width="300pt" height="300pt" viewBox="0 0 300 300" version="1.1">
<defs>
<g>
<symbol overflow="visible" id="glyph0-0">
<path style="stroke:none;" d="M 0.796875 2.828125 L 0.796875 -11.28125 L 8.796875 -11.28125 L 8.796875 2.828125 Z M 1.703125 1.9375 L 7.90625 1.9375 L 7.90625 -10.390625 L 1.703125 -10.390625 Z M 1.703125 1.9375 "/>
</symbol>
<symbol overflow="visible" id="glyph0-1">
<path style="stroke:none;" d="M 1.578125 -11.671875 L 3.15625 -11.671875 L 3.15625 -6.890625 L 8.890625 -6.890625 L 8.890625 -11.671875 L 10.46875 -11.671875 L 10.46875 0 L 8.890625 0 L 8.890625 -5.5625 L 3.15625 -5.5625 L 3.15625 0 L 1.578125 0 Z M 1.578125 -11.671875 "/>
</symbol>
<symbol overflow="visible" id="glyph0-2">
<path style="stroke:none;" d="M 6.3125 -10.59375 C 5.164062 -10.59375 4.253906 -10.164062 3.578125 -9.3125 C 2.898438 -8.457031 2.5625 -7.296875 2.5625 -5.828125 C 2.5625 -4.359375 2.898438 -3.195312 3.578125 -2.34375 C 4.253906 -1.488281 5.164062 -1.0625 6.3125 -1.0625 C 7.457031 -1.0625 8.363281 -1.488281 9.03125 -2.34375 C 9.695312 -3.195312 10.03125 -4.359375 10.03125 -5.828125 C 10.03125 -7.296875 9.695312 -8.457031 9.03125 -9.3125 C 8.363281 -10.164062 7.457031 -10.59375 6.3125 -10.59375 Z M 6.3125 -11.875 C 7.945312 -11.875 9.253906 -11.328125 10.234375 -10.234375 C 11.210938 -9.140625 11.703125 -7.671875 11.703125 -5.828125 C 11.703125 -3.984375 11.210938 -2.507812 10.234375 -1.40625 C 9.253906 -0.3125 7.945312 0.234375 6.3125 0.234375 C 4.664062 0.234375 3.351562 -0.3125 2.375 -1.40625 C 1.394531 -2.507812 0.90625 -3.984375 0.90625 -5.828125 C 0.90625 -7.671875 1.394531 -9.140625 2.375 -10.234375 C 3.351562 -11.328125 4.664062 -11.875 6.3125 -11.875 Z M 6.3125 -11.875 "/>
</symbol>
</g>
</defs>
<g id="surface29321">
<rect x="0" y="0" width="300" height="300" style="fill:rgb(100%,100%,100%);fill-opacity:1;stroke:none;"/>
<path style=" stroke:none;fill-rule:nonzero;fill:rgb(0%,0%,0%);fill-opacity:1;" d="M 83.183594 109.449219 L 72.464844 72.117188 L 60.332031 78.039062 Z M 83.183594 109.449219 "/>
<path style="fill:none;stroke-width:1.2;stroke-linecap:butt;stroke-linejoin:miter;stroke:rgb(0%,0%,0%);stroke-opacity:1;stroke-miterlimit:10;" d="M 83.183594 109.449219 L 111.296875 83.511719 "/>
<path style="fill:none;stroke-width:1.2;stroke-linecap:butt;stroke-linejoin:miter;stroke:rgb(0%,0%,0%);stroke-opacity:1;stroke-miterlimit:10;" d="M 83.183594 109.449219 L 64.3125 112.558594 "/>
<path style="fill:none;stroke-width:1.2;stroke-linecap:butt;stroke-linejoin:miter;stroke:rgb(100%,0%,0%);stroke-opacity:1;stroke-miterlimit:10;" d="M 64.3125 112.558594 L 45.441406 115.671875 "/>
<path style="fill:none;stroke-width:1.2;stroke-linecap:butt;stroke-linejoin:miter;stroke:rgb(0%,0%,0%);stroke-opacity:1;stroke-miterlimit:10;" d="M 83.183594 109.449219 L 78.320312 147.386719 "/>
<path style="fill:none;stroke-width:1.2;stroke-linecap:butt;stroke-linejoin:miter;stroke:rgb(0%,0%,0%);stroke-opacity:1;stroke-miterlimit:10;" d="M 111.296875 83.511719 L 149.503906 81.710938 "/>
<path style="fill:none;stroke-width:1.2;stroke-linecap:butt;stroke-linejoin:miter;stroke:rgb(0%,0%,0%);stroke-opacity:1;stroke-miterlimit:10;" d="M 149.503906 81.710938 L 179.929688 104.894531 "/>
<path style="fill:none;stroke-width:1.2;stroke-linecap:butt;stroke-linejoin:miter;stroke:rgb(0%,0%,0%);stroke-opacity:1;stroke-miterlimit:10;" d="M 179.929688 104.894531 L 188.335938 142.207031 "/>
<path style="fill:none;stroke-width:1;stroke-linecap:butt;stroke-linejoin:miter;stroke:rgb(0%,0%,0%);stroke-opacity:1;stroke-miterlimit:10;" d="M 179.929688 104.894531 L 179.929688 104.894531 M 181.066406 102.117188 L 180.046875 101.894531 M 182.207031 99.34375 L 180.167969 98.898438 M 183.34375 96.566406 L 180.289062 95.902344 M 184.484375 93.792969 L 180.410156 92.902344 M 185.621094 91.015625 L 180.527344 89.90625 M 186.761719 88.242188 L 180.648438 86.90625 M 187.902344 85.464844 L 180.769531 83.910156 M 189.039062 82.691406 L 180.890625 80.914062 M 190.179688 79.914062 L 181.011719 77.914062 M 191.316406 77.140625 L 181.128906 74.917969 M 192.457031 74.363281 L 181.25 71.917969 M 193.597656 71.589844 L 181.371094 68.921875 M 194.675781 68.960938 L 181.484375 66.082031 "/>
<path style="fill:none;stroke-width:1.2;stroke-linecap:butt;stroke-linejoin:miter;stroke:rgb(0%,0%,0%);stroke-opacity:1;stroke-miterlimit:10;" d="M 217.242188 96.488281 L 179.929688 104.894531 "/>
<path style="fill:none;stroke-width:1.2;stroke-linecap:butt;stroke-linejoin:miter;stroke:rgb(0%,0%,0%);stroke-opacity:1;stroke-miterlimit:10;" d="M 188.335938 142.207031 L 225.648438 133.800781 "/>
<path style="fill:none;stroke-width:1.2;stroke-linecap:butt;stroke-linejoin:miter;stroke:rgb(0%,0%,0%);stroke-opacity:1;stroke-miterlimit:10;" d="M 188.335938 142.207031 L 170.789062 176.195312 "/>
<path style="fill:none;stroke-width:1.2;stroke-linecap:butt;stroke-linejoin:miter;stroke:rgb(0%,0%,0%);stroke-opacity:1;stroke-miterlimit:10;" d="M 225.648438 133.800781 L 217.242188 96.488281 "/>
<path style="fill:none;stroke-width:1.2;stroke-linecap:butt;stroke-linejoin:miter;stroke:rgb(0%,0%,0%);stroke-opacity:1;stroke-miterlimit:10;" d="M 217.242188 96.488281 L 208.835938 59.171875 "/>
<path style="fill:none;stroke-width:1.2;stroke-linecap:butt;stroke-linejoin:miter;stroke:rgb(0%,0%,0%);stroke-opacity:1;stroke-miterlimit:10;" d="M 217.242188 96.488281 L 254.558594 88.082031 "/>
<path style="fill:none;stroke-width:1.2;stroke-linecap:butt;stroke-linejoin:miter;stroke:rgb(0%,0%,0%);stroke-opacity:1;stroke-miterlimit:10;" d="M 170.789062 176.195312 L 135.5 190.953125 "/>
<path style="fill:none;stroke-width:1.2;stroke-linecap:butt;stroke-linejoin:miter;stroke:rgb(0%,0%,0%);stroke-opacity:1;stroke-miterlimit:10;" d="M 163.785156 169.367188 L 135.554688 181.175781 "/>
<path style="fill:none;stroke-width:1.2;stroke-linecap:butt;stroke-linejoin:miter;stroke:rgb(0%,0%,0%);stroke-opacity:1;stroke-miterlimit:10;" d="M 170.789062 176.195312 L 196.726562 204.308594 "/>
<path style="fill:none;stroke-width:1.2;stroke-linecap:butt;stroke-linejoin:miter;stroke:rgb(0%,0%,0%);stroke-opacity:1;stroke-miterlimit:10;" d="M 135.5 190.953125 L 98.980469 179.578125 "/>
<path style="fill:none;stroke-width:1.2;stroke-linecap:butt;stroke-linejoin:miter;stroke:rgb(0%,0%,0%);stroke-opacity:1;stroke-miterlimit:10;" d="M 98.980469 179.578125 L 78.320312 147.386719 "/>
<path style="fill:none;stroke-width:1.2;stroke-linecap:butt;stroke-linejoin:miter;stroke:rgb(0%,0%,0%);stroke-opacity:1;stroke-miterlimit:10;" d="M 104.488281 171.496094 L 87.960938 145.746094 "/>
<path style="fill:none;stroke-width:1.2;stroke-linecap:butt;stroke-linejoin:miter;stroke:rgb(0%,0%,0%);stroke-opacity:1;stroke-miterlimit:10;" d="M 196.726562 204.308594 L 191.035156 222.566406 "/>
<path style="fill:none;stroke-width:1.2;stroke-linecap:butt;stroke-linejoin:miter;stroke:rgb(100%,0%,0%);stroke-opacity:1;stroke-miterlimit:10;" d="M 191.035156 222.566406 L 185.347656 240.828125 "/>
<path style=" stroke:none;fill-rule:nonzero;fill:rgb(100%,100%,100%);fill-opacity:1;" d="M 160.347656 231.328125 L 185.347656 231.328125 L 185.347656 250.328125 L 160.347656 250.328125 Z M 160.347656 231.328125 "/>
<g style="fill:rgb(100%,0%,0%);fill-opacity:1;">
  <use xlink:href="#glyph0-1" x="160.347656" y="246.179688"/>
  <use xlink:href="#glyph0-2" x="172.378906" y="246.179688"/>
</g>
<path style=" stroke:none;fill-rule:nonzero;fill:rgb(100%,100%,100%);fill-opacity:1;" d="M 176.078125 58.023438 L 201.078125 58.023438 L 201.078125 77.023438 L 176.078125 77.023438 Z M 176.078125 58.023438 "/>
<g style="fill:rgb(100%,0%,0%);fill-opacity:1;">
  <use xlink:href="#glyph0-2" x="176.078125" y="72.875"/>
  <use xlink:href="#glyph0-1" x="188.671875" y="72.875"/>
</g>
<path style=" stroke:none;fill-rule:nonzero;fill:rgb(100%,100%,100%);fill-opacity:1;" d="M 20.441406 106.171875 L 45.441406 106.171875 L 45.441406 125.171875 L 20.441406 125.171875 Z M 20.441406 106.171875 "/>
<g style="fill:rgb(100%,0%,0%);fill-opacity:1;">
  <use xlink:href="#glyph0-1" x="20.441406" y="121.023438"/>
  <use xlink:href="#glyph0-2" x="32.472656" y="121.023438"/>
</g>
</g>
</svg>

<svg xmlns="http://www.w3.org/2000/svg" xmlns:xlink="http://www.w3.org/1999/xlink" width="300pt" height="300pt" viewBox="0 0 300 300"><defs><symbol overflow="visible"><path d="M.797 2.828v-14.11h8V2.83zm.906-.89h6.203v-12.33H1.703zm0 0"/></symbol><symbol overflow="visible" id="a"><path d="M1.578-11.672h1.578v4.78H8.89v-4.78h1.58V0H8.89v-5.563H3.157V0H1.578zm0 0"/></symbol><symbol overflow="visible" id="b"><path d="M6.313-10.594c-1.15 0-2.06.43-2.735 1.28-.68.857-1.015 2.017-1.015 3.486 0 1.47.335 2.633 1.015 3.484.676.856 1.586 1.28 2.735 1.28 1.144.002 2.05-.424 2.718-1.28.665-.85 1-2.015 1-3.484 0-1.47-.335-2.63-1-3.484-.667-.852-1.573-1.282-2.717-1.282zm0-1.28c1.632 0 2.94.546 3.92 1.64.978 1.093 1.47 2.562 1.47 4.406 0 1.844-.492 3.32-1.47 4.422-.98 1.093-2.288 1.64-3.92 1.64-1.65 0-2.96-.546-3.938-1.64-.98-1.102-1.47-2.578-1.47-4.422 0-1.844.49-3.313 1.47-4.406.977-1.094 2.29-1.64 3.938-1.64zm0 0"/></symbol></defs><g><path fill="#fff" d="M0 0h300v300H0z"/><path d="M83.184 109.45l-10.72-37.333-12.132 5.922zm0 0"/><path d="M83.184 109.45l28.113-25.938M83.184 109.45l-18.87 3.11" stroke-width="1.2" stroke="#000" stroke-miterlimit="10" fill="none"/><path d="M64.313 112.56L45.44 115.67" stroke-width="1.2" stroke="#f00" stroke-miterlimit="10" fill="none"/><path d="M83.184 109.45l-4.864 37.937M111.297 83.512l38.207-1.8M149.504 81.71l30.426 23.185M179.93 104.895l8.406 37.312" stroke-width="1.2" stroke="#000" stroke-miterlimit="10" fill="none"/><path d="M179.93 104.895m1.136-2.778l-1.02-.222m2.16-2.55l-2.038-.447m3.176-2.332l-3.055-.664m4.194-2.11l-4.074-.89m5.21-1.886l-5.093-1.11m6.235-1.664l-6.114-1.336m7.254-1.44l-7.132-1.556m8.27-1.22l-8.15-1.776m9.29-1l-9.168-2m10.304-.773L181.13 74.92m11.327-.555l-11.207-2.445m12.348-.328l-12.227-2.668m13.306.04l-13.192-2.88" stroke="#000" stroke-miterlimit="10" fill="none"/><path d="M217.242 96.488l-37.312 8.407M188.336 142.207l37.312-8.406M188.336 142.207l-17.547 33.988M225.648 133.8l-8.406-37.312M217.242 96.488l-8.406-37.316M217.242 96.488l37.317-8.406M170.79 176.195l-35.29 14.758M163.785 169.367l-28.23 11.81M170.79 176.195l25.937 28.114M135.5 190.953l-36.52-11.375M98.98 179.578l-20.66-32.19M104.488 171.496l-16.527-25.75M196.727 204.31l-5.692 18.256" stroke-width="1.2" stroke="#000" stroke-miterlimit="10" fill="none"/><path d="M191.035 222.566l-5.687 18.262" stroke-width="1.2" stroke="#f00" stroke-miterlimit="10" fill="none"/><path d="M160.348 231.328h25v19h-25zm0 0" fill="#fff"/><g fill="#f00"><use xlink:href="#a" x="160.348" y="246.18"/><use xlink:href="#b" x="172.379" y="246.18"/></g><path d="M176.078 58.023h25v19h-25zm0 0" fill="#fff"/><g fill="#f00"><use xlink:href="#b" x="176.078" y="72.875"/><use xlink:href="#a" x="188.672" y="72.875"/></g><path d="M20.44 106.172h25v19h-25zm0 0" fill="#fff"/><g fill="#f00"><use xlink:href="#a" x="20.441" y="121.023"/><use xlink:href="#b" x="32.473" y="121.023"/></g></g></svg>
